!!!!SEGMENT: 006-1b-Sm-002.krn
!!!COM: Chopin, Fryderyk
!!!OTL:Mazourka No. 2.
!!!OPS:Op. 6
!!!PTL:Cinq Mazurkas
!!!PPR: M. Schlesinger
!!!PPP: Paris
!!!NIFC-rismID: M/174
!!!NIFC-shelfmark: PL-Wmfc M/174
!!!OMD: Metr: M: [quarter] = 63.
!!!OMD:sotto voce.
**kern	**kern	**dynam
*part1	*part1	*part1
*staff2	*staff1	*
*>[A,B,B,C,C,D]	*>[A,B,B,C,C,D]	*
*clefF4	*clefG2	*
*k[f#c#g#d#]	*k[f#c#g#d#]	*
*c#:	*c#:	*
*M3/4	*M3/4	*
*MM63	*MM63	*
=1-	=1-	=1-
*>A	*>A	*
!LO:TX:a:t=legato.	!	!
*	*^	*
4D#\ 4GG#\	4g#	4B#X</	p
2D#^<\ 2GG#\	2g#^	4A#X</	.
.	.	8B#<L	.
.	.	8c#<J	.
=2	=2	=2	=2
4D#\ 4GG#\	4ryy	8d#\L	.
.	.	8B#XJ	.
2D#^<\ 2GG#\	2g#^	4.c#	.
.	.	8A#X</	.
=3	=3	=3	=3
4D#\ 4GG#\	4g#	12B#X<L	.
.	.	12c#<	.
.	.	12B#<J	.
2D#^<\ 2GG#\	2g#^	4A#X</	.
.	.	8B#<L	.
.	.	8c#<J	.
=4	=4	=4	=4
4D#\ 4GG#\	4g#	(12d#L	.
.	.	12f#	.
.	.	12eJ)	.
2D#^<\ 2GG#\	2g#^	2d#	.
=5	=5	=5	=5
[<4D#\ 4GG#\	4g#^	(>12B#X<L	.
.	.	12c#<	.
.	.	12B#<J)	.
4D#\] 4GG#\	4g#^	(4A#X</	.
4D#\ 4GG#\	4g#^	8B#<L	.
.	.	8c#<J	.
=6	=6	=6	=6
4D#\ 4GG#\	4g#^	8d#L	.
.	.	8B#X	.
.	8qd#/	.	.
4D#\ 4GG#\	4g#^	8c#	.
.	.	8B#	.
4D#\ 4GG#\	4g#^	8c#	.
.	.	8A#XJ)	.
!!LO:LB:g=original
=7	=7	=7	=7
!!### instead of #### in lines 2 to 6.
4D#\ 4GG#\	4g#^	12B#X<L	.
.	.	12c#<	.
.	.	12B#<J	.
4D#\ 4GG#\	4g#^	4A#X</	.
4D#\ 4GG#\	8g#'L 8B#X	4ryy	.
.	8g#'J 8c#	.	.
*	*v	*v	*
=8	=8	=8
4D#\ 4GG#\	12g#'>L (<12d#	.
.	12g#'> 12f#	.
.	12g#'>J 12e)	.
4D#\ 4GG#\	4g# 4d#	.
=!|:	=!|:	=!|:
*>B	*>B	*
4r	(>4g#^>\	.
=9	=9	=9
*ped	*	*
4BB#X'	8gg#L)	.
.	16r	.
.	(16aaJk	.
4f# 4d# 4G#	4.ff#	.
*Xped	*	*
4f# 4d# 4G#	.	.
.	8gg#	.
=10	=10	=10
*ped	*	*
4C#	8.eeL	.
.	16gg#Jk	.
4e 4c# 4G#	4cc#	.
*Xped	*	*
4e 4c# 4G#	4ee	.
=11	=11	=11
*ped	*	*
4BB#X	8gg#L)	.
.	16r	.
.	(16aaJk	.
4f# 4d# 4G#	4ff#)	.
*Xped	*	*
4f# 4d# 4G#	4gg#^	.
=12	=12	=12
*ped	*	*
4BB	(12eeL	.
.	12ff#	.
.	(<12gg#J)	.
.	8qgg#/	.
4e 4c# 4G#	4.cc#^)	.
*Xped	*	*
4r	.	.
.	(8cc##X	.
!!LO:LB:g=original
=13	=13	=13
*ped	*	*
.	.	.
4FF##X	)>8dd#`L	.
.	16r	.
.	(16eeJk	.
4c# 4A 4D#	4.cc#	.
*Xped	*	*
4c# 4A 4D#	.	.
.	8dd#	.
=14	=14	=14
*ped	*	*
4GG#	8.b#XL	.
.	16dd#Jk	.
4B#X 4F# 4D#	4g#)	.
*Xped	*	*
!	!LO:TX:a:t=P:niepotrzebny bemol przy obiegniku:problem	!
4B# 4F# 4D#	4a^>t<M<	f
=15	=15	=15
*ped	*	*
!	!LO:TX:a:B:t=con forza.	!
4GG#	8g#`L	.
.	16r	.
.	(16f#Jk	.
4B#X 4F# 4D#	4d#)	.
*Xped	*	*
.	.	.
4B# 4F# 4D#	4g#	.
=16	=16	=16
*ped	*	*
.	.	.
.	(<8qg#/	.
4CC#	2c#^>)	.
4e: 4G#: 4C#:	.	.
*Xped	*	*
.	.	.
=:|!|:	=:|!|:	=:|!|:
*>C	*>C	*
!	!LO:TX:b:B:t=leggier.	!
4r	4c##X	.
=17	=17	=17
*ped	*	*
4GG#	8d#'L	.
.	16r	.
.	(<16f##XJk	.
4B#X 4G# 4D#	4g#	.
*Xped	*	*
4B# 4G# 4D#	8b#X/L	.
.	8dd#J)	.
=18	=18	=18
*ped	*	*
4GG#	8d#'L	.
.	16r	.
.	(<16f##XJk	.
4B#X 4G# 4D#	8g#L	.
.	8b#XJ	<
*Xped	*	*
4B# 4G# 4D#	4dd#)	.
.	.	[
!!LO:LB:g=original
=19	=19	=19
*^	*	*
2A#X	(>4G# 4E	8.cc##X^/L	.
.	.	(<16a#XJk	.
.	4F##X 4D#	4cc#X/)	.
4ryy	4G#\` 4GG#\)	(<8b#XL	.
.	.	8g#J	.
=20	=20	=20	=20
2A#X	(>4G# 4E	(12cc##X^>/L)	.
.	.	12a#X	.
.	.	12b#XJ))	.
.	4F##X 4D#	4cc#X/	.
4ryy	4G#\` 4GG#\)	8b#L	.
.	.	8g#J	.
*v	*v	*	*
=21	=21	=21
*ped	*	*
.	.	.
4GG# 4GGG#	8d#'L	.
.	16r	.
.	(16f##XJk	.
4B#X 4G# 4D#	4g#	<
*Xped	*	*
4B# 4G# 4D#	8b#X/L	.
.	8dd#J)	[
=22	=22	=22
*ped	*	*
4GG#'	8d#'L	.
.	16r	.
.	(<16f##XJk	.
4B#X 4G# 4D#	8g#L	.
.	8b#XJ	.
*Xped	*	*
4B# 4G# 4D#	4dd#^>/)	.
=23	=23	=23
*^	*	*
2A#X	(>4G# 4E	8cc##X/L	>
.	.	8a#XJ	]
.	4F##X 4D#	4cc#X/	.
4ryy	4G#\` 4GG#\)	8b#XL	.
.	.	(>8g#J	.
*v	*v	*	*
=24	=24	=24
!	!LO:TX:b:B:t=calando.	!
2.r	8.gg#L)	.
.	(16g#k	.
.	8.gg#)	.
.	(16g#k)	.
.	8.gg#)	.
.	(16g#Jk)	.
!!LO:LB:g=original
=25	=25	=25
*ped	*	*
!	!LO:TX:b:B:t=a Tempo.	!
4BB#X	)>8.gg#L	.
.	(16aaJk	.
4f# 4d# 4G#	4.ff#	.
*Xped	*	*
4f# 4d# 4G#	.	.
.	8gg#	.
=26	=26	=26
*ped	*	*
4C#	8.eeL	.
.	16gg#Jk	.
4e 4c# 4G#	4cc#	.
*Xped	*	*
4e 4c# 4G#	4ee	.
=27	=27	=27
*ped	*	*
4BB#X	8gg#`L)	.
.	16r	.
.	(16aaJk)	.
4f# 4d# 4G#	4ff#)	.
*Xped	*	*
4f# 4d# 4G#	4gg#^	.
=28	=28	=28
*ped	*	*
4C#	(12eeL	.
.	12ff#	.
.	12gg#J)	.
.	(<8qgg#/	.
4e 4G#	4.cc#^)	.
4r	.	.
*Xped	*	*
.	8cc##X	.
=29	=29	=29
*^	*	*
4ryy	2.FF##X	8dd#^L	f
.	.	8ee^J	.
4A#X\ 4D#\	.	4cc#^	.
4A#\ 4D#\	.	4dd#^	.
*v	*v	*	*
=30	=30	=30
(>4GG#	8b#X^L	.
.	8dd#^J	.
4B#X) 4F# 4D#	8g#^	.
.	8r	.
!	!LO:TX:t=P:niepotrzebny kasownik przy obiegniku:problem	!
4r	4aT<m<	.
!!LO:LB:g=original
=31	=31	=31
*ped	*	*
4GG#	8g#`L	.
.	16r	.
.	(16f#Jk	.
4B#X 4F# 4D#	4d#)	.
*Xped	*	*
!	!LO:TX:b:B:t=con forza.	!
4B# 4F# 4D#	4g#	.
=32	=32	=32
.	8qg#/	.
*ped	*	*
4CC#	2c#^>	.
*Xped	*	*
4e: 4G#: 4C#:	.	.
=:|!	=:|!	=:|!
*>D	*>D	*
!	!LO:TX:a:t=gajo.	!
4r	(>4c#	p
=33	=33	=33
*ped	*	*
4AA	8cc#L	<
.	8dd#XJ	.
4c# 4E	4.ee	[
*Xped	*	*
4c# 4E	.	.
.	8cc#)	.
=34	=34	=34
*ped	*	*
4EE	(8bL	.
.	8g#J	.
4B 4E	2e^>)	.
*Xped	*	*
4B 4E	.	.
=35	=35	=35
*ped	*	*
4AA'	(>8cc#L	<
.	8dd#J	.
4c# 4E	4ee')	[
.	8qff#/	.
4c# 4E	(8eeL	.
*Xped	*	*
.	8cc#J	.
=36	=36	=36
*ped	*	*
4EE	8b\L	.
.	8g#J)	.
4B 4E	[2e^>	.
*Xped	*	*
4B 4E	.	.
!!LO:PB:g=original
=37	=37	=37
*	*^	*
(4E 4AA	(8eL]	4c#	p
.	8aJ	.	.
4E' 4EE	2g#)	4B	.
4E' 4EE)	.	4B	.
=38	=38	=38	=38
(<4E 4AA	(8eL	4c#^	.
.	8qb/	.	.
.	8aJ	.	.
4E' 4EE	2g#)	4B	.
4E' 4EE)	.	4B	.
=39	=39	=39	=39
(4E 4AA	(>8eL	4c#^	.
.	8aJ	.	.
4E' 4EE	4g#'	4B	.
4E' 4EE)	4g#')	4B	.
=40	=40	=40	=40
*^	*	*	*
4E	8.AAL	(<8eL	4c#	.
.	.	8aJ)	.	.
.	16BBJk	.	.	.
*ped	*	*	*	*
4C#^\	2ryy	4g#^> 4G#	2ryy	fz
4CC#'^>	.	4r	.	.
*v	*v	*	*	*
*	*v	*v	*
=41	=41	=41
4r	(>8ee#XL	f
.	8ff##XJ	.
4e#X 4c# 4G# 4E#X	4.gg#)	>
4e# 4c# 4G# 4E#	.	]
*Xped	*	*
.	8ee#	.
=42	=42	=42
*ped	*	*
4GG#	(8dd#L	.
.	8b#XJ)	.
4B#X 4G# 4D#	2g#^\)	.
4B# 4G# 4D#	.	.
!!LO:LB:g=original
=43	=43	=43
4C#\	(8ee#XL	.
.	8ff##XJ	.
4e#X 4c# 4G# 4E#X	4gg#)	.
.	8qaa#X/	.
4e# 4c# 4G# 4E#	(8gg#L	.
.	8ee#J)	.
=44	=44	=44
4GG#'	(8dd#\L	.
.	8b#XJ	.
4B#X 4G# 4D#	[2g#^\)	.
4B# 4G# 4D#	.	.
=45	=45	=45
*	*^	*
4c# 4G# 4C#	(8g#L]	4e#X	.
.	8cc#J	.	.
(4G#'\ 4GG#\	2b#X^	4d#	.
4G#'\ 4GG#\	.	4d#	.
=46	=46	=46	=46
4G# 4C#)	8g#L)	4e#X^	.
.	8qdd#/	.	.
!	!	!	!LO:HP:b:t=decres
.	8cc#J	.	>
(4G#\ 4GG#\	2b#X^	4d#	.
4G#\ 4GG#\	.	4d#	.
=47	=47	=47	=47
4G# 4C#)	(8g#L	4e#X^	.
.	8cc#J	.	.
\4G# 4GG#\	4b#X'	4d#	.
4G#\ 4GG#\	4b#')	4d#	.
=48	=48	=48	=48
4G# 4C#	(8g#L	4e#X^	.
.	8cc#J	.	.
4G#\ 4GG#\	4b#X^)	4d#	.
4G#\ 4GG#\	4r	(<8d#L	.
.	.	8c#J	]
!!LO:LB:g=original
=49	=49	=49	=49
!	!LO:TX:a:t=sotto voce.	!	!
4D#\ 4GG#\	4g#	4B#X)	.
2D#^<\ 2GG#\	2g#^	4A#X</	.
.	.	(8B#X<L	.
.	.	8c#<J)	.
=50	=50	=50	=50
4D#\ 4GG#\	4ryy	8d#\L	.
.	.	8B#XJ	.
!	!LO:TX:b:t=sempre legato.	!	!
2D#^<\ 2GG#\	2g#^	4.c#	.
.	.	8A#X</	.
=51	=51	=51	=51
*	*	*Xtuplet	*
4D#\ 4GG#\	4g#	12B#X<L	.
.	.	12c#<	.
.	.	12B#<J	.
*	*	*tuplet	*
2D#\ 2GG#\	2g#^	4A#X</	.
.	.	8B#<L	.
.	.	8c#<J	.
=52	=52	=52	=52
4D#\ 4GG#\	4g#	(<12d#L	.
.	.	12f#	.
.	.	12eJ)	.
2D#\ 2GG#\	2g#^	2d#	.
=53	=53	=53	=53
*	*	*Xtuplet	*
4D#\ 4GG#\	4g#^	12B#X<L	.
.	.	12c#<	.
.	.	12B#<J	.
*	*	*tuplet	*
4D#\ 4GG#\	4g#^	4A#X</	.
4D#\ 4GG#\	4g#^	8B#<L	.
.	.	8c#<J	.
=54	=54	=54	=54
4D#\ 4GG#\	4g#^	8d#L	.
.	.	8B#X	.
.	8qd#/	.	.
4D#\ 4GG#\	4g#^	8c#	.
.	.	8B#	.
4D#\ 4GG#\	4g#^	8c#	.
.	.	8A#XJ	.
!!LO:LB:g=original
=55	=55	=55	=55
4D#\ 4GG#\	4g#^	12B#X<L	.
.	.	12c#<	.
.	.	12B#<J	.
4D#\ 4GG#\	4g#^	4A#X</	.
4D#\ 4GG#\	8g#'L 8B#X	4ryy	.
.	8g#'J 8c#	.	.
*	*v	*v	*
=56	=56	=56
4D#\ 4GG#\	(<12g#'L 12d#	.
.	12g#' 12f#	.
.	12g#'J 12e)	.
4D#\ 4GG#\	4g#' 4d#	.
4r	(>\4g#^	.
=57	=57	=57
*ped	*	*
4BB#X	8gg#`L)	p
.	16r	.
.	(16aaJk	.
4f# 4d# 4G#	4.ff#	.
*Xped	*	*
4f# 4d# 4G#	.	.
.	8gg#)	.
=58	=58	=58
4C#	(8.eeL	.
.	16gg#Jk	.
4e 4G#	4cc#	.
4e 4G#	4ee	.
=59	=59	=59
4BB#X	8gg#'L)	.
.	16r	.
.	(16aaJk	.
4f# 4d# 4G#	4ff#	.
4f# 4d# 4G#	4gg#^)	.
=60	=60	=60
4C#	(12eeL	.
.	12ff#	.
.	12gg#J)	.
.	(8qgg#/	.
4e 4c# 4G#	4.cc#^)	.
4r	.	.
.	(8cc##X	.
!!LO:LB:g=original
=61	=61	=61
4FF##X'	8dd#`L)	.
.	16r	.
.	(16eeJk	.
4c# 4A 4D#	4.cc#	.
4c# 4A 4D#	.	.
.	8dd#	.
=62	=62	=62
4GG#	8.b#XL	.
.	16dd#Jk	.
4B#X 4F# 4D#	4g#\	.
!	!LO:TX:t=P:niepotrzebny bemol przy obiegniku:problem	!
4B# 4F# 4D#	4atm\)	.
=63	=63	=63
4GG#	8g#L	.
.	16r	.
!	!LO:TX:a:t=con forza.	!
.	(<16f#Jk	.
4B#X 4F# 4D#	4d#)	.
4B# 4F# 4D#	4g#^	.
=64	=64	=64
.	8qg#/	.
4CC#	2c#^>	.
4e: 4G#: 4C#:	.	.
4ryy	(>4g#	p
=65	=65	=65
*ped	*	*
!	!LO:TX:b:t=rubato.	!
4BB#X	8gg#'L	.
.	8aa'J	.
4f# 4d# 4G#	4ff#'	.
*Xped	*	*
4f# 4d# 4G#	4gg#'	.
=66	=66	=66
*ped	*	*
4C#\	8ee'L	.
.	8gg#'J	.
4e 4c# 4G#	4cc#'	.
*Xped	*	*
4e 4c# 4G#	4ee')	.
!!LO:LB:g=original
=67	=67	=67
*ped	*	*
4BB#X	(>12gg#L	.
.	8qbb/	.
.	12aa	.
.	24r	.
.	24gg#Jk)	.
4f# 4d# 4G#	4dd#`	.
*Xped	*	*
4f# 4d# 4G#	4gg#^<	.
.	(<8qgg#/	.
=68	=68	=68
*ped	*	*
4C#	()>12eeL	.
.	12ff#	.
.	12gg#J)	.
.	8qgg#/	.
4e 4c# 4G#	4.cc#	.
*Xped	*	*
4r	.	.
.	8cc##X	.
=69	=69	=69
*ped	*	*
4FF##X'	(>8dd#'L	f
.	16r	.
.	16ee'Jk	.
4c# 4AX 4D#	4cc#'	.
*Xped	*	*
4c# 4A 4D#	4dd#'	.
=70	=70	=70
*ped	*	*
(4GG#'	8b#X'L	.
.	16r	.
.	16dd#'Jk	.
4B#X 4F# 4D#)	4g#\)	.
*Xped	*	*
!	!LO:TX:t=P:niepotrzebny bemol przy trylu:problem	!
4r	(4a^>t<	.
=71	=71	=71
*ped	*	*
4GG#'	8g#L)	.
.	16r	.
!	!LO:TX:a:t=con forza.	!
.	(16aJk)	.
4B#X 4F# 4D#	4d#)	.
*Xped	*	*
4B# 4F# 4D#	4g#^)	.
=72	=72	=72
*ped	*	*
.	.	.
.	8qg#/	.
4CC#	2.c#^>;	.
4e 4G# 4C#	.	.
!LO:TX:b:t=Fine.	!	!
4r;	.	.
==	==	==
*-	*-	*-
!!title: @{OTL}; @{OPS} @{ONM} publisher: @{PPR}
!!!RDF**kern: > = above
!!!RDF**kern: < = below
!!!ENC:Jacek Iwaszko
!!!END:2017-08-29
!!!EED: Leszek Kubiak
!!!EST: revision finished 2018-12-07
!!!rism-genre: Mazurka
!!!rism-key: C-sharp minor
!!!rism-opus: op. 6, no 2
!!!rism-title: Mazurka in C-sharp minor op. 6, no 2
!!!rism-permalink: 
!!!rism-773a-OPR: 
!!!rism-parent-permalink: 
